eleven/templates/component/navigation/tabs/icons/layout-2col.svg

<?xml version="1.0" encoding="UTF-8"?>
<svg width="28px" height="26px" viewBox="0 0 28 26" version="1.1" xmlns="http://www.w3.org/2000/svg" xmlns:xlink="http://www.w3.org/1999/xlink">
    <!-- Generator: Sketch 43.1 (39012) - http://www.bohemiancoding.com/sketch -->
    <title>layout-2col</title>
    <desc>Created with Sketch.</desc>
    <defs></defs>
    <g id="Page-1" stroke="none" stroke-width="1" fill="none" fill-rule="evenodd">
        <path d="M2.78571712,23.571457 C2.44419879,23.571457 2.14286,23.32034 2.14286,23.035742 L2.14286,4.285719 L15,4.285719 L15,23.571457 L2.78571712,23.571457 Z M25.714316,23.035742 C25.714316,23.32034 25.5100745,23.571457 25.2786001,23.571457 L17,23.571457 L17,4.285719 L25.714316,4.285719 L25.714316,23.035742 Z M27.857176,2.678575 C27.857176,1.205359 26.651817,0 25.178601,0 L2.678575,0 C1.205359,0 0,1.205359 0,2.678575 L0,23.035742 C0,24.508958 1.205359,25.714316 2.678575,25.714316 L25.178601,25.714316 C26.651817,25.714316 27.857176,24.508958 27.857176,23.035742 L27.857176,2.678575 Z" id="layout-2col" fill="#000000" fill-rule="nonzero"></path>
    </g>
</svg>

<svg width="28" height="26" viewBox="0 0 28 26" xmlns="http://www.w3.org/2000/svg"><title>layout-2col</title><path d="M2.786 23.571c-.342 0-.643-.25-.643-.535V4.286H15V23.57H2.786zm22.928-.535c0 .284-.204.535-.435.535H17V4.286h8.714v18.75zm2.143-20.357A2.686 2.686 0 0 0 25.18 0h-22.5A2.686 2.686 0 0 0 0 2.679v20.357a2.686 2.686 0 0 0 2.679 2.678h22.5a2.686 2.686 0 0 0 2.678-2.678V2.679z" fill="#000" fill-rule="nonzero"/></svg>
